ideogram-cjk.svg

<svg fill="currentColor" viewBox="0 0 24 24"><path d="M11 4v2H4v4h2V8h12v2h2V6h-7V4m-5 6v2h5.59l-2 2H4v2h7v2h-1v2h3v-4h7v-2h-5.79L16 12.21V10Z"/></svg>

<svg  viewBox="0 0 24 24" fill="currentColor"><path  d="M11 4V6H4V10H6V8H18V10H20V6H13V4M8 10V12H13.59L11.59 14H4V16H11V18H10V20H13V16H20V14H14.21L16 12.21V10Z"/></svg>
